public/images/home/bird.svg

<svg width="168" height="59" viewBox="0 0 168 59" fill="none" xmlns="http://www.w3.org/2000/svg">
<path fill-rule="evenodd" clip-rule="evenodd" d="M43.5898 0.543294C37.9098 1.56775 32.0399 3.55338 27.2895 6.10067C24.402 7.6512 20.2092 10.5703 18.7813 12.0299L17.5709 13.2719L16.1747 12.279C14.8694 11.3495 14.6518 11.2862 12.1085 11.3179C9.90531 11.3495 8.7543 11.5987 5.40405 12.6548C1.3972 13.9285 0.12752 14.7037 0.467687 15.6372C0.590305 15.8864 2.23573 16.8792 4.19367 17.8087C10.0319 20.6329 12.5475 23.7063 13.477 29.141C14.098 32.9303 14.9682 36.063 15.9611 38.3018C18.0733 43.1156 23.4764 48.6413 28.5986 51.2163C30.8651 52.3633 32.1388 52.395 32.6332 51.3389C32.9418 50.6862 32.8508 50.1602 32.1349 48.139C31.4189 46.181 31.233 45.0972 31.1104 42.0239C31.0471 39.975 31.0787 37.2418 31.233 35.9681L31.4822 33.6384L34.1205 33.4208C39.9587 32.9224 44.0881 31.2176 47.5333 27.8951C49.242 26.2496 49.6455 25.6919 49.6455 24.9127C49.6455 24.355 49.4596 23.7656 49.2104 23.5758C48.9929 23.3898 47.6282 23.0774 46.2003 22.8915C43.8112 22.6106 38.2538 20.9335 36.2326 19.9091C35.7342 19.6915 35.3624 19.3197 35.3624 19.1022C35.3624 17.9828 38.776 13.8533 43.8389 8.79432C46.9123 5.72095 49.6139 2.89677 49.8314 2.49332C50.3575 1.46886 50.049 0.661957 48.9613 0.290147C47.7509 -0.14495 47.3791 -0.113306 43.5898 0.539339V0.543294ZM46.9756 2.99566C40.113 8.8932 33.9345 15.8508 33.1909 18.5524C32.8824 19.7311 33.4085 20.9731 34.5279 21.6574C36.1417 22.6185 41.9165 24.4499 44.6181 24.8573C46.0144 25.0432 47.1655 25.324 47.1655 25.4467C47.1655 25.5693 46.4495 26.2536 45.5516 26.9379C42.3556 29.4852 38.7206 30.6955 32.7914 31.1623C30.4617 31.3482 29.9989 31.4708 29.6231 32.0641C29.0021 32.9659 28.4128 39.5478 28.6303 42.9613C28.7252 44.4841 29.0338 46.4381 29.283 47.3083C29.5322 48.1469 29.6864 48.8905 29.6231 48.9854C29.3739 49.2346 26.1146 46.9049 24.0657 44.9509C19.0661 40.2637 17.2031 36.5693 15.526 28.0296C15.1859 26.2892 14.6241 24.3352 14.284 23.6825C12.8877 20.9177 9.56515 17.785 6.58276 16.3255C5.83914 15.9536 5.24587 15.5818 5.24587 15.4553C5.24587 15.1467 9.93299 13.8414 11.705 13.6872C13.0103 13.5646 13.7223 13.6872 14.901 14.2449C15.7396 14.6483 16.4239 15.1467 16.4239 15.392C16.4239 15.6095 16.5188 15.7954 16.6098 15.7954C16.7324 15.7954 18.1603 14.8343 19.8097 13.6516C27.5702 8.0942 32.8191 5.45594 40.022 3.46636C43.4671 2.53683 47.1931 1.85254 47.5966 2.07009C47.7508 2.16502 47.474 2.56847 46.9756 2.99961V2.99566Z" fill="#9AB0A6"/>
<path fill-rule="evenodd" clip-rule="evenodd" d="M132.978 14.1737C130.372 15.0755 127.947 16.721 125.744 19.1101C122.33 22.7412 120.871 26.4988 121.088 31.095L121.211 33.4564L118.727 34.0774C113.292 35.4143 109.475 35.8178 101.493 35.8178C91.5888 35.7862 89.8485 35.537 74.0466 31.5934C68.5802 30.2565 64.0788 29.2043 64.0195 29.2637C63.9562 29.3269 64.423 29.8214 65.0757 30.383C68.0264 32.9897 77.559 36.2806 87.6769 38.2069C90.9995 38.8279 92.3324 38.9228 100.097 38.9228C109.535 38.9228 112.889 38.5194 118.976 36.779C120.467 36.3122 121.741 35.9721 121.8 35.9721C121.86 35.9721 122.326 36.7157 122.856 37.5859C125.526 42.3363 131.424 45.5046 138.876 46.185C140.739 46.3709 142.539 46.4658 142.91 46.3709C143.251 46.3076 144.493 46.185 145.612 46.0624L147.693 45.9081L147.879 47.3044C148.001 48.048 148.563 49.6341 149.152 50.7812C152.103 56.651 159.397 60.0013 166.323 58.6683C168.993 58.1422 168.621 57.8614 164.151 56.9002C156.418 55.2864 153.408 53.3918 151.328 48.8588C150.924 47.9886 150.552 46.8416 150.489 46.2522C150.394 45.2278 150.457 45.1961 152.012 44.6384C156.545 43.0879 160.239 40.2597 160.674 37.9933C160.892 36.688 160.148 35.2008 158.934 34.5798C157.755 33.9587 155.117 33.9904 153.875 34.6114C151.205 35.976 148.816 38.8951 148.1 41.6916L147.76 43.0562L145.679 43.3054C142.887 43.5863 137.484 43.2421 135.186 42.6211C130.87 41.4741 126.772 38.6459 125.562 36.0077C125.254 35.2917 125.064 34.7024 125.127 34.643C125.19 34.6114 126.246 34.0853 127.425 33.496C132.733 30.8577 137.393 27.1 139.659 23.5599C141.182 21.2302 141.676 19.5847 141.459 17.5675C141.15 14.2133 137.329 12.6944 132.982 14.1816L132.978 14.1737ZM138.785 16.6894C139.374 17.1561 139.529 17.5595 139.501 18.6473C139.438 21.4398 136.768 25.0749 132.797 27.8081C130.095 29.6711 124.878 32.341 124.474 32.0918C124.071 31.8426 124.103 29.0501 124.506 27.278C124.909 25.4783 126.088 23.2119 127.457 21.5347C130.779 17.4686 136.645 14.9529 138.789 16.6894H138.785ZM157.664 36.8699C158.843 37.6136 156.05 40.1609 152.51 41.5255C151.3 41.9922 150.865 42.0516 150.865 41.7747C150.865 41.2486 152.479 38.7329 153.226 38.1119C154.777 36.775 156.703 36.2489 157.664 36.8699Z" fill="#9AB0A6"/>
</svg>

<svg xmlns="http://www.w3.org/2000/svg" width="168" height="59" fill="none" viewBox="0 0 168 59"><path fill="#9ab0a6" fill-rule="evenodd" d="M43.59.543c-5.68 1.025-11.55 3.01-16.3 5.558-2.888 1.55-7.08 4.47-8.509 5.929l-1.21 1.242-1.396-.993c-1.306-.93-1.523-.993-4.067-.961-2.203.032-3.354.28-6.704 1.337C1.397 13.929.128 14.704.468 15.637c.122.25 1.768 1.242 3.726 2.172 5.838 2.824 8.353 5.897 9.283 11.332.621 3.79 1.491 6.922 2.484 9.16 2.112 4.815 7.515 10.34 12.638 12.915 2.266 1.147 3.54 1.179 4.034.123.309-.653.218-1.179-.498-3.2-.716-1.958-.902-3.042-1.025-6.115-.063-2.049-.031-4.782.123-6.056l.25-2.33 2.637-.217c5.839-.499 9.968-2.203 13.413-5.526 1.709-1.645 2.112-2.203 2.112-2.982 0-.558-.185-1.147-.435-1.337-.217-.186-1.582-.499-3.01-.684-2.389-.281-7.946-1.959-9.967-2.983-.499-.217-.87-.59-.87-.807 0-1.12 3.413-5.249 8.476-10.308 3.073-3.073 5.775-5.897 5.992-6.3.526-1.025.218-1.832-.87-2.204-1.21-.435-1.582-.403-5.371.25zm3.386 2.453C40.113 8.893 33.935 15.85 33.19 18.552c-.309 1.18.217 2.421 1.337 3.105 1.614.962 7.389 2.793 10.09 3.2 1.396.186 2.547.467 2.547.59s-.715.807-1.613 1.49c-3.196 2.548-6.831 3.758-12.76 4.225-2.33.186-2.793.309-3.169.902-.62.902-1.21 7.484-.993 10.897.095 1.523.404 3.477.653 4.347.25.839.403 1.583.34 1.677-.25.25-3.508-2.08-5.557-4.034-5-4.687-6.863-8.382-8.54-16.921-.34-1.74-.902-3.695-1.242-4.347-1.396-2.765-4.719-5.898-7.701-7.357-.744-.372-1.337-.744-1.337-.87 0-.31 4.687-1.615 6.459-1.769 1.305-.122 2.017 0 3.196.558.839.403 1.523.902 1.523 1.147 0 .218.095.403.186.403.122 0 1.55-.96 3.2-2.143 7.76-5.558 13.01-8.196 20.212-10.186 3.445-.93 7.171-1.613 7.575-1.396.154.095-.123.498-.621.93zm86.002 11.178c-2.606.902-5.031 2.547-7.234 4.936-3.414 3.631-4.873 7.389-4.656 11.985l.123 2.361-2.484.621c-5.435 1.337-9.252 1.74-17.234 1.74-9.904-.03-11.644-.28-27.446-4.224-5.467-1.337-9.968-2.389-10.028-2.33-.063.064.404.558 1.057 1.12 2.95 2.607 12.483 5.898 22.6 7.824 3.323.62 4.656.716 12.421.716 9.438 0 12.792-.404 18.879-2.144 1.491-.467 2.765-.807 2.824-.807.06 0 .526.744 1.056 1.614 2.67 4.75 8.568 7.919 16.02 8.599 1.863.186 3.663.28 4.034.186.341-.063 1.583-.186 2.702-.309l2.081-.154.186 1.396c.122.744.684 2.33 1.273 3.477 2.951 5.87 10.245 9.22 17.171 7.887 2.67-.526 2.298-.807-2.172-1.768-7.733-1.614-10.743-3.508-12.823-8.041-.404-.87-.776-2.017-.839-2.607-.095-1.024-.032-1.056 1.523-1.614 4.533-1.55 8.227-4.378 8.662-6.645.218-1.305-.526-2.792-1.74-3.413-1.179-.621-3.817-.59-5.059.031-2.67 1.365-5.059 4.284-5.775 7.08l-.34 1.365-2.081.25c-2.792.28-8.195-.064-10.493-.685-4.316-1.147-8.414-3.975-9.624-6.613-.308-.716-.498-1.306-.435-1.365l2.298-1.147c5.308-2.638 9.968-6.396 12.234-9.936 1.523-2.33 2.017-3.975 1.8-5.992-.309-3.355-4.13-4.874-8.477-3.386zm5.807 2.515c.589.467.744.87.716 1.958-.063 2.793-2.733 6.428-6.704 9.161-2.702 1.863-7.919 4.533-8.323 4.284-.403-.25-.371-3.042.032-4.814.403-1.8 1.582-4.066 2.951-5.743 3.322-4.066 9.188-6.582 11.332-4.846zm18.879 20.18c1.179.745-1.614 3.292-5.154 4.657-1.21.466-1.645.526-1.645.249 0-.526 1.614-3.042 2.361-3.663 1.551-1.337 3.477-1.863 4.438-1.242" clip-rule="evenodd"/></svg>
